src/assets/messages.svg

<svg width="19" height="17" viewBox="0 0 19 17" fill="none" xmlns="http://www.w3.org/2000/svg">
<path d="M3.37268 16.7521C3.24345 16.8645 3.08486 16.9377 2.91551 16.9631C2.74616 16.9884 2.57308 16.965 2.41659 16.8954C2.26011 16.8259 2.12672 16.7131 2.03207 16.5704C1.93743 16.4277 1.88546 16.261 1.88228 16.0897V14.071C1.40489 14.071 0.947049 13.8814 0.609483 13.5438C0.271918 13.2063 0.0822754 12.7484 0.0822754 12.271V5.97105C0.0822754 5.49366 0.271918 5.03582 0.609483 4.69825C0.947049 4.36069 1.40489 4.17105 1.88228 4.17105H11.7823C12.2597 4.17105 12.7175 4.36069 13.0551 4.69825C13.3926 5.03582 13.5823 5.49366 13.5823 5.97105V12.271C13.5823 12.7484 13.3926 13.2063 13.0551 13.5438C12.7175 13.8814 12.2597 14.071 11.7823 14.071H7.28498L3.37268 16.7521ZM14.4823 9.58635C14.4794 9.69703 14.4794 9.80776 14.4823 9.91845V9.58545C14.4868 9.48915 14.4877 8.28315 14.4859 5.96835C14.4852 5.25273 14.2004 4.56667 13.6941 4.0609C13.1878 3.55514 12.5015 3.27104 11.7859 3.27105H4.58228V2.37105C4.58228 1.89366 4.77192 1.43582 5.10948 1.09825C5.44705 0.760687 5.90489 0.571045 6.38228 0.571045H16.2823C16.7597 0.571045 17.2175 0.760687 17.5551 1.09825C17.8926 1.43582 18.0823 1.89366 18.0823 2.37105V8.67105C18.0823 9.14844 17.8926 9.60627 17.5551 9.94384C17.2175 10.2814 16.7597 10.471 16.2823 10.471V12.4897C16.2791 12.661 16.2271 12.8277 16.1325 12.9704C16.0378 13.1131 15.9044 13.2259 15.748 13.2954C15.5915 13.365 15.4184 13.3884 15.249 13.3631C15.0797 13.3377 14.9211 13.2645 14.7919 13.1521L14.4823 12.9397V9.58635Z" fill="white"/>
</svg>

<svg xmlns="http://www.w3.org/2000/svg" width="19" height="17" fill="none"><path fill="#fff" d="M3.373 16.752a.9.9 0 0 1-1.49-.662V14.07a1.8 1.8 0 0 1-1.8-1.8v-6.3a1.8 1.8 0 0 1 1.8-1.8h9.9a1.8 1.8 0 0 1 1.8 1.8v6.3a1.8 1.8 0 0 1-1.8 1.8H7.284l-3.912 2.681Zm11.11-7.166a6.34 6.34 0 0 0 0 .332v-.333c.004-.096.005-1.302.003-3.617a2.7 2.7 0 0 0-2.7-2.697H4.582v-.9a1.8 1.8 0 0 1 1.8-1.8h9.9a1.8 1.8 0 0 1 1.8 1.8v6.3a1.8 1.8 0 0 1-1.8 1.8v2.019a.9.9 0 0 1-1.49.662l-.31-.212V9.586Z"/></svg>
